assets/img/edubuntu-dark.svg

<?xml version="1.0" encoding="UTF-8"?>
<svg width="1284px" height="361px" viewBox="0 0 1284 361" version="1.1" xmlns="http://www.w3.org/2000/svg" xmlns:xlink="http://www.w3.org/1999/xlink">
    <title>Group</title>
    <g id="Page-1" stroke="none" stroke-width="1" fill="none" fill-rule="evenodd">
        <g id="Group" fill-rule="nonzero">
            <rect id="rect6" fill="#A30B00" x="0" y="0" width="233.92999" height="360.26999"></rect>
            <circle id="circle8" fill="#FFFFFF" cx="51.02" cy="237.8" r="24.549999"></circle>
            <circle id="circle10" fill="#FFFFFF" cx="153.25999" cy="183.97" r="24.549999"></circle>
            <path d="M106.39,301 C88.8199756,297.280223 73.8514612,285.862003 65.62,269.9 C59.0484452,272.886923 51.7191408,273.787381 44.62,272.48 C57.039187,302.918705 86.7461233,322.723329 119.62,322.48 C115.115037,316.585585 112.591191,309.416602 112.41,302 C110.387871,301.767562 108.378679,301.433809 106.39,301 L106.39,301 Z" id="path12" fill="#FFFFFF"></path>
            <circle id="circle14" fill="#FFFFFF" cx="147.73" cy="301.10999" r="24.549999"></circle>
            <path d="M181.89,292.1 C203.470644,264.86 205.084791,226.830704 185.89,197.86 C183.053158,204.521284 178.244153,210.153892 172.11,214 C182.08397,232.873135 181.323095,255.6157 170.11,273.78 C175.876286,278.486311 180.000803,284.90067 181.89,292.1 L181.89,292.1 Z" id="path16" fill="#FFFFFF"></path>
            <path d="M49.259495,203.29668 C49.911055,203.29968 48.597427,203.29668 49.259495,203.29668 C56.169106,203.30268 63.311961,205.19841 68.150641,208.78765 C73.776557,200.34769 82.188496,192.93845 87.709399,190.24724 C87.660309,182.4283 88.638069,173.14935 91.302755,166.96054 C72.555787,172.31667 54.858885,191.73731 49.259495,203.29668 Z" id="path18" fill="#FFFFFF"></path>
            <path d="M97.262487,173.71044 C97.262487,173.71044 96.400351,176.16625 96.137643,185.82105 C96.137643,185.82105 106.21107,182.12473 119.22004,181.68465 C121.50785,149.07462 151.42612,134.14797 164.96151,126.01428 C164.96151,126.01428 149.23605,146.35943 164.96151,126.01428 C133.35466,123.75496 103.67545,142.10723 97.677596,171.66478 L97.262487,173.71044 Z" id="path9434" fill="#FFFFFF"></path>
            <polygon id="path911" fill="#FFFFFF" points="286.73897 325.98273 286.73897 161.51096 381.67216 161.51096 381.67216 175.51361 302.87761 175.51361 302.87761 232.71086 373.12818 232.71086 373.12818 246.47617 302.87761 246.47617 302.87761 311.98008 387.84282 311.98008 387.84282 325.98273"></polygon>
            <path d="M512.91675,322.1854 C508.32831,323.76762 502.474097,325.27073 495.35411,326.69473 C488.234117,328.118723 479.21546,328.83072 468.29814,328.83072 C459.279487,328.83072 451.051943,327.406723 443.61551,324.55873 C436.337303,321.55251 430.008423,317.280517 424.62887,311.74275 C419.40755,306.204977 415.29378,299.48054 412.28756,291.56944 C409.43956,283.65834 408.01556,274.718797 408.01556,264.75081 C408.01556,255.415717 409.202227,246.87173 411.57556,239.11885 C414.107113,231.20775 417.74622,224.404203 422.49288,218.70821 C427.23954,213.012223 433.014643,208.58201 439.81819,205.41757 C446.779957,202.25313 454.691053,200.67091 463.55148,200.67091 C471.620807,200.67091 478.582577,201.857573 484.43679,204.2309 C490.449223,206.446007 494.800327,208.582003 497.4901,210.63889 L497.4901,144.66032 L512.91675,141.81232 L512.91675,322.1854 Z M497.4901,225.59087 C496.066107,224.483317 494.246553,223.296653 492.03144,222.03088 C489.974553,220.7651 487.522113,219.578433 484.67412,218.47088 C481.826127,217.363327 478.740797,216.493107 475.41813,215.86022 C472.09547,215.069107 468.614587,214.67355 464.97548,214.67355 C457.380827,214.67355 450.972837,216.018437 445.75151,218.70821 C440.688403,221.39799 436.57463,225.037097 433.41019,229.62553 C430.24575,234.05575 427.951533,239.356187 426.52754,245.52684 C425.10354,251.53928 424.39154,257.94727 424.39154,264.75081 C424.39154,280.889457 428.4262,293.309883 436.49552,302.01209 C444.564847,310.556083 455.244833,314.82808 468.53548,314.82808 C476.130133,314.82808 482.22168,314.511633 486.81012,313.87874 C491.55678,313.087633 495.116773,312.296523 497.4901,311.50541 L497.4901,225.59087 Z" id="path913" fill="#FFFFFF"></path>
            <path d="M647.95883,321.71073 C643.37039,322.97651 637.199733,324.40051 629.44686,325.98273 C621.69398,327.56495 612.20066,328.35606 600.9669,328.35606 C591.790027,328.35606 584.11626,327.011173 577.9456,324.3214 C571.77494,321.631627 566.790947,317.834297 562.99362,312.92941 C559.196293,308.02453 556.42741,302.091207 554.68697,295.12944 C553.10475,288.167673 552.31364,280.493907 552.31364,272.10814 L552.31364,203.28157 L567.74028,203.28157 L567.74028,267.12414 C567.74028,275.826353 568.373167,283.183677 569.63894,289.19611 C570.90472,295.20855 572.961607,300.113433 575.8096,303.91076 C578.6576,307.549867 582.296707,310.23964 586.72692,311.98008 C591.31536,313.5623 596.85313,314.35341 603.34023,314.35341 C610.618443,314.35341 616.947323,313.957857 622.32687,313.16675 C627.706417,312.375637 631.10819,311.663637 632.53219,311.03075 L632.53219,203.28157 L647.95883,203.28157 L647.95883,321.71073 Z" id="path915" fill="#FFFFFF"></path>
            <path d="M704.20633,210.63889 C706.896103,208.582003 711.168097,206.446007 717.02231,204.2309 C723.03475,201.857573 730.07563,200.67091 738.14495,200.67091 C747.005383,200.67091 754.837373,202.25313 761.64092,205.41757 C768.602687,208.58201 774.4569,213.012223 779.20356,218.70821 C783.95022,224.404203 787.510213,231.20775 789.88354,239.11885 C792.415093,246.87173 793.68087,255.415717 793.68087,264.75081 C793.68087,274.718797 792.17776,283.65834 789.17154,291.56944 C786.323547,299.48054 782.209777,306.204977 776.83023,311.74275 C771.608903,317.280517 765.280023,321.55251 757.84359,324.55873 C750.565377,327.406723 742.416943,328.83072 733.39829,328.83072 C722.48097,328.83072 713.462317,328.118723 706.34233,326.69473 C699.222337,325.27073 693.368123,323.76762 688.77969,322.1854 L688.77969,144.66032 L704.20633,141.81232 L704.20633,210.63889 Z M704.20633,311.50541 C706.579663,312.296523 710.060547,313.087633 714.64898,313.87874 C719.39564,314.511633 725.5663,314.82808 733.16096,314.82808 C746.451607,314.82808 757.13159,310.556083 765.20091,302.01209 C773.27023,293.309883 777.30489,280.889457 777.30489,264.75081 C777.30489,257.94727 776.592893,251.53928 775.1689,245.52684 C773.7449,239.356187 771.45068,234.05575 768.28624,229.62553 C765.1218,225.037097 760.928917,221.39799 755.70759,218.70821 C750.644483,216.018437 744.315603,214.67355 736.72095,214.67355 C733.081843,214.67355 729.60096,215.069107 726.2783,215.86022 C722.95564,216.493107 719.87031,217.363327 717.02231,218.47088 C714.174317,219.578433 711.642767,220.7651 709.42766,222.03088 C707.370773,223.296653 705.63033,224.483317 704.20633,225.59087 L704.20633,311.50541 Z" id="path917" fill="#FFFFFF"></path>
            <path d="M921.36563,321.71073 C916.77719,322.97651 910.606533,324.40051 902.85366,325.98273 C895.10078,327.56495 885.60746,328.35606 874.3737,328.35606 C865.19682,328.35606 857.523053,327.011173 851.3524,324.3214 C845.18174,321.631627 840.197747,317.834297 836.40042,312.92941 C832.603093,308.02453 829.834207,302.091207 828.09376,295.12944 C826.51154,288.167673 825.72043,280.493907 825.72043,272.10814 L825.72043,203.28157 L841.14708,203.28157 L841.14708,267.12414 C841.14708,275.826353 841.779967,283.183677 843.04574,289.19611 C844.31152,295.20855 846.368407,300.113433 849.2164,303.91076 C852.064393,307.549867 855.7035,310.23964 860.13372,311.98008 C864.72216,313.5623 870.25993,314.35341 876.74703,314.35341 C884.025243,314.35341 890.354123,313.957857 895.73367,313.16675 C901.113217,312.375637 904.51499,311.663637 905.93899,311.03075 L905.93899,203.28157 L921.36563,203.28157 L921.36563,321.71073 Z" id="path919" fill="#FFFFFF"></path>
            <path d="M962.18649,207.55356 C966.774923,206.287787 972.94558,204.86379 980.69846,203.28157 C988.45134,201.69935 997.944653,200.90824 1009.1784,200.90824 C1018.51353,200.90824 1026.26643,202.253127 1032.4371,204.9429 C1038.76597,207.632673 1043.74993,211.509113 1047.389,216.57222 C1051.18633,221.4771 1053.87613,227.410423 1055.4584,234.37219 C1057.0406,241.333957 1057.8317,249.007723 1057.8317,257.39349 L1057.8317,325.98273 L1042.405,325.98273 L1042.405,262.37749 C1042.405,253.675277 1041.77213,246.317953 1040.5064,240.30552 C1039.3988,234.29308 1037.421,229.388197 1034.573,225.59087 C1031.88327,221.793543 1028.24417,219.10377 1023.6557,217.52155 C1019.2255,215.78111 1013.60863,214.91089 1006.8051,214.91089 C999.52688,214.91089 993.197997,215.306443 987.81845,216.09755 C982.597123,216.888663 979.19535,217.600663 977.61313,218.23355 L977.61313,325.98273 L962.18649,325.98273 L962.18649,207.55356 Z" id="path921" fill="#FFFFFF"></path>
            <path d="M1111.7059,203.28157 L1160.5965,203.28157 L1160.5965,216.33488 L1111.7059,216.33488 L1111.7059,281.60146 C1111.7059,288.563227 1112.25967,294.259217 1113.3672,298.68943 C1114.633,302.961423 1116.37347,306.284087 1118.5886,308.65742 C1120.80367,311.030747 1123.49343,312.612967 1126.6579,313.40408 C1129.82237,314.195187 1133.30323,314.59074 1137.1005,314.59074 C1143.58763,314.59074 1148.80897,313.878743 1152.7645,312.45475 C1156.72003,310.87253 1159.80537,309.44853 1162.0205,308.18275 L1165.8178,320.99873 C1163.60273,322.42273 1159.7263,324.084063 1154.1885,325.98273 C1148.65077,327.72317 1142.63833,328.59339 1136.1512,328.59339 C1128.55653,328.59339 1122.14853,327.644057 1116.9272,325.74539 C1111.86413,323.68851 1107.75037,320.682293 1104.5859,316.72674 C1101.5797,312.612967 1099.4437,307.549863 1098.1779,301.53743 C1096.91217,295.524997 1096.2793,288.405007 1096.2793,280.17746 L1096.2793,167.20696 L1111.7059,164.35896 L1111.7059,203.28157 Z" id="path923" fill="#FFFFFF"></path>
            <path d="M1283.2975,321.71073 C1278.70903,322.97651 1272.53837,324.40051 1264.7855,325.98273 C1257.03263,327.56495 1247.5393,328.35606 1236.3055,328.35606 C1227.12863,328.35606 1219.45487,327.011173 1213.2842,324.3214 C1207.11353,321.631627 1202.12953,317.834297 1198.3322,312.92941 C1194.53493,308.02453 1191.76607,302.091207 1190.0256,295.12944 C1188.4434,288.167673 1187.6523,280.493907 1187.6523,272.10814 L1187.6523,203.28157 L1203.0789,203.28157 L1203.0789,267.12414 C1203.0789,275.826353 1203.7118,283.183677 1204.9776,289.19611 C1206.24333,295.20855 1208.3002,300.113433 1211.1482,303.91076 C1213.9962,307.549867 1217.6353,310.23964 1222.0655,311.98008 C1226.65397,313.5623 1232.19177,314.35341 1238.6789,314.35341 C1245.9571,314.35341 1252.28597,313.957857 1257.6655,313.16675 C1263.04503,312.375637 1266.4468,311.663637 1267.8708,311.03075 L1267.8708,203.28157 L1283.2975,203.28157 L1283.2975,321.71073 Z" id="path925" fill="#FFFFFF"></path>
        </g>
    </g>
</svg>

<svg width="1284" height="361" xmlns="http://www.w3.org/2000/svg"><g fill="none"><path fill="#A30B00" d="M0 0h233.93v360.27H0z"/><circle fill="#FFF" cx="51.02" cy="237.8" r="24.55"/><circle fill="#FFF" cx="153.26" cy="183.97" r="24.55"/><path d="M106.39 301a59.81 59.81 0 0 1-40.77-31.1 35.3 35.3 0 0 1-21 2.58c12.42 30.439 42.126 50.243 75 50a35.14 35.14 0 0 1-7.21-20.48 60.85 60.85 0 0 1-6.02-1Z" fill="#FFF"/><circle fill="#FFF" cx="147.73" cy="301.11" r="24.55"/><path d="M181.89 292.1c21.58-27.24 23.195-65.27 4-94.24A35.44 35.44 0 0 1 172.11 214a60.23 60.23 0 0 1-2 59.78 35.17 35.17 0 0 1 11.78 18.32ZM49.26 203.297c.651.003-.663 0 0 0 6.91.006 14.052 1.901 18.89 5.49 5.627-8.44 14.038-15.849 19.56-18.54-.05-7.819.928-17.098 3.593-23.286-18.747 5.356-36.444 24.776-42.044 36.336Zm48.002-29.587s-.862 2.456-1.124 12.111c0 0 10.073-3.696 23.082-4.136 2.288-32.61 32.206-47.537 45.742-55.67 0 0-15.726 20.344 0 0-31.607-2.26-61.287 16.092-67.284 45.65l-.416 2.045Zm189.477 152.273V161.51h94.933v14.003h-78.794v57.197h70.25v13.765h-70.25v65.504h84.965v14.003zm226.178-3.798c-4.589 1.583-10.443 3.086-17.563 4.51-7.12 1.424-16.139 2.136-27.056 2.136-9.019 0-17.246-1.424-24.682-4.272-7.279-3.006-13.608-7.278-18.987-12.816-5.221-5.538-9.335-12.262-12.341-20.174-2.848-7.91-4.272-16.85-4.272-26.818 0-9.335 1.186-17.88 3.56-25.632 2.531-7.911 6.17-14.715 10.917-20.41 4.747-5.697 10.522-10.127 17.325-13.291 6.962-3.165 14.873-4.747 23.733-4.747 8.07 0 15.032 1.187 20.886 3.56 6.012 2.215 10.363 4.351 13.053 6.408V144.66l15.427-2.848v180.373Zm-15.427-96.594c-1.424-1.108-3.243-2.294-5.459-3.56-2.056-1.266-4.509-2.453-7.357-3.56-2.848-1.108-5.933-1.978-9.256-2.61-3.323-.792-6.803-1.187-10.443-1.187-7.594 0-14.002 1.344-19.223 4.034-5.064 2.69-9.177 6.33-12.342 10.918-3.164 4.43-5.458 9.73-6.882 15.9-1.424 6.013-2.136 12.421-2.136 19.225 0 16.138 4.034 28.559 12.104 37.261 8.069 8.544 18.749 12.816 32.04 12.816 7.594 0 13.686-.316 18.274-.95 4.747-.79 8.307-1.581 10.68-2.373v-85.914Zm150.469 96.119c-4.589 1.267-10.76 2.69-18.512 4.273-7.753 1.582-17.246 2.373-28.48 2.373-9.177 0-16.85-1.345-23.021-4.035-6.171-2.69-11.155-6.487-14.952-11.392-3.798-4.904-6.567-10.838-8.307-17.8-1.582-6.961-2.373-14.635-2.373-23.02v-68.827h15.426v63.842c0 8.702.633 16.06 1.899 22.072 1.266 6.013 3.323 10.917 6.17 14.715 2.849 3.639 6.488 6.329 10.918 8.07 4.588 1.581 10.126 2.372 16.613 2.372 7.278 0 13.607-.395 18.987-1.186 5.38-.791 8.781-1.503 10.205-2.136V203.28h15.427v118.43Zm56.247-111.071c2.69-2.057 6.962-4.193 12.816-6.408 6.013-2.373 13.054-3.56 21.123-3.56 8.86 0 16.692 1.582 23.496 4.747 6.962 3.164 12.816 7.594 17.563 13.29 4.746 5.696 8.306 12.5 10.68 20.41 2.531 7.754 3.797 16.298 3.797 25.633 0 9.968-1.503 18.907-4.51 26.818-2.847 7.912-6.961 14.636-12.34 20.174-5.222 5.538-11.551 9.81-18.987 12.816-7.279 2.848-15.427 4.272-24.446 4.272-10.917 0-19.936-.712-27.056-2.136-7.12-1.424-12.974-2.927-17.562-4.51V144.66l15.426-2.848v68.827Zm0 100.866c2.374.792 5.855 1.583 10.443 2.374 4.747.633 10.917.95 18.512.95 13.29 0 23.97-4.273 32.04-12.817 8.07-8.702 12.104-21.123 12.104-37.261 0-6.804-.712-13.212-2.136-19.224-1.424-6.17-3.718-11.471-6.883-15.901-3.164-4.589-7.357-8.228-12.578-10.918-5.064-2.69-11.392-4.034-18.987-4.034-3.64 0-7.12.395-10.443 1.186-3.322.633-6.408 1.503-9.256 2.61-2.848 1.108-5.38 2.295-7.594 3.56-2.057 1.267-3.798 2.453-5.222 3.56v85.915Zm217.16 10.205c-4.589 1.267-10.76 2.69-18.512 4.273-7.753 1.582-17.247 2.373-28.48 2.373-9.177 0-16.85-1.345-23.022-4.035-6.17-2.69-11.154-6.487-14.952-11.392-3.797-4.904-6.566-10.838-8.306-17.8-1.582-6.961-2.374-14.635-2.374-23.02v-68.827h15.427v63.842c0 8.702.633 16.06 1.899 22.072 1.266 6.013 3.322 10.917 6.17 14.715 2.848 3.639 6.487 6.329 10.918 8.07 4.588 1.581 10.126 2.372 16.613 2.372 7.278 0 13.607-.395 18.987-1.186 5.38-.791 8.781-1.503 10.205-2.136V203.28h15.427v118.43Zm40.82-114.156c4.589-1.266 10.76-2.69 18.512-4.272 7.753-1.583 17.247-2.374 28.48-2.374 9.336 0 17.088 1.345 23.26 4.035 6.328 2.69 11.312 6.566 14.951 11.63 3.797 4.904 6.487 10.837 8.07 17.8 1.582 6.961 2.373 14.635 2.373 23.02v68.59h-15.427v-63.606c0-8.702-.633-16.059-1.899-22.071-1.107-6.013-3.085-10.918-5.933-14.715-2.69-3.797-6.329-6.487-10.917-8.07-4.43-1.74-10.047-2.61-16.85-2.61-7.28 0-13.608.395-18.988 1.187-5.22.79-8.623 1.503-10.205 2.136v107.749h-15.427v-118.43Zm149.52-4.272h48.89v13.053h-48.89V281.6c0 6.962.554 12.658 1.661 17.088 1.266 4.272 3.006 7.595 5.222 9.968 2.215 2.374 4.904 3.956 8.069 4.747 3.164.791 6.645 1.187 10.443 1.187 6.487 0 11.708-.712 15.663-2.136 3.956-1.582 7.041-3.006 9.257-4.272l3.797 12.816c-2.215 1.424-6.092 3.085-11.63 4.984-5.537 1.74-11.55 2.61-18.037 2.61-7.594 0-14.002-.949-19.224-2.848-5.063-2.056-9.177-5.063-12.341-9.018-3.006-4.114-5.142-9.177-6.408-15.19-1.266-6.012-1.899-13.132-1.899-21.36v-112.97l15.427-2.848v38.923Zm171.591 118.428c-4.588 1.267-10.759 2.69-18.512 4.273-7.752 1.582-17.246 2.373-28.48 2.373-9.176 0-16.85-1.345-23.02-4.035-6.171-2.69-11.155-6.487-14.953-11.392-3.797-4.904-6.566-10.838-8.306-17.8-1.583-6.961-2.374-14.635-2.374-23.02v-68.827h15.427v63.842c0 8.702.633 16.06 1.899 22.072 1.265 6.013 3.322 10.917 6.17 14.715 2.848 3.639 6.487 6.329 10.918 8.07 4.588 1.581 10.126 2.372 16.613 2.372 7.278 0 13.607-.395 18.986-1.186 5.38-.791 8.782-1.503 10.206-2.136V203.28h15.426v118.43Z" fill="#FFF"/></g></svg>
